brandFactory_export/1.Light/Hospital_1Light.svg

<?xml version="1.0" encoding="UTF-8"?>
<svg width="24px" height="24px" viewBox="0 0 24 24" version="1.1" xmlns="http://www.w3.org/2000/svg" xmlns:xlink="http://www.w3.org/1999/xlink">
    <title>1.Light/Hospital_1Light</title>
    <g id="Symbols" stroke="none" stroke-width="1" fill="none" fill-rule="evenodd">
        <g id="1.Light/Hospital_1Light" fill="#5CB615" fill-rule="nonzero">
            <path d="M22.6453782,22.3327731 L22.6453782,4.90420168 C22.6453782,4.78655462 22.6352941,4.68235294 22.6184874,4.59831933 L19.9058824,4.59831933 C19.892437,4.68235294 19.8823529,4.78655462 19.8823529,4.90420168 L19.8823529,22.6386555 L22.6218487,22.6386555 C22.6319328,22.5579832 22.6453782,22.4537815 22.6453782,22.3327731 Z M18.9042017,22.6386555 L18.9042017,1.44537815 C18.9042017,1.22352941 18.6756303,0.988235294 18.5109244,0.988235294 L5.11260504,0.988235294 C4.9512605,0.988235294 4.72268908,1.22689076 4.72268908,1.44537815 L4.72268908,22.6420168 L8.35630252,22.6420168 L8.35630252,14.3764706 C8.35630252,14.1042017 8.57478992,13.8857143 8.84705882,13.8857143 L14.7831933,13.8857143 C15.0521008,13.8857143 15.2739496,14.107563 15.2739496,14.3764706 L15.2739496,22.6420168 L18.9042017,22.6420168 L18.9042017,22.6386555 Z M9.33445378,22.6386555 L14.292437,22.6386555 L14.292437,14.8638655 L9.33445378,14.8638655 L9.33445378,22.6386555 L9.33445378,22.6386555 Z M0.978151261,22.3327731 C0.978151261,22.4537815 0.988235294,22.5579832 1.00168067,22.6386555 L3.74117647,22.6386555 L3.74117647,21.4151261 C3.74117647,21.4084034 3.73781513,21.405042 3.73781513,21.4016807 L3.73781513,4.90756303 C3.73781513,4.78991597 3.72773109,4.68571429 3.71428571,4.60168067 L1.00168067,4.60168067 C0.988235294,4.68571429 0.974789916,4.78991597 0.974789916,4.90756303 L0.974789916,22.3327731 L0.978151261,22.3327731 Z M22.9176471,3.61680672 C23.5731092,3.61680672 23.6235294,4.60504202 23.6235294,4.90756303 L23.6235294,22.3361345 C23.6235294,22.7260504 23.5563025,23.6268908 22.9176471,23.6268908 L0.705882353,23.6268908 C0.0672268908,23.6268908 0,22.7260504 0,22.3361345 L0,4.90756303 C0,4.60504202 0.0504201681,3.61680672 0.705882353,3.61680672 L3.74453782,3.61680672 L3.74453782,1.44201681 C3.74453782,0.685714286 4.39663866,0 5.11596639,0 L18.5142857,0 C19.2336134,0 19.8857143,0.685714286 19.8857143,1.44201681 L19.8857143,3.61680672 L22.9176471,3.61680672 L22.9176471,3.61680672 Z M15.5092437,7.92268908 C15.5764706,7.92268908 15.6369748,7.87563025 15.6470588,7.85210084 L15.6436975,6.08403361 C15.6235294,6.0605042 15.5731092,6.02352941 15.512605,6.02352941 L13.2436975,6.02352941 C12.9747899,6.02352941 12.7529412,5.80504202 12.7529412,5.53277311 L12.7529412,3.2605042 C12.7529412,3.19327731 12.7058824,3.13277311 12.6857143,3.12268908 L10.907563,3.12605042 C10.9109244,3.13277311 10.8705882,3.18991597 10.8705882,3.25714286 L10.8705882,5.53277311 C10.8705882,5.80504202 10.6521008,6.02352941 10.3798319,6.02352941 L8.11428571,6.02352941 C8.04369748,6.02352941 7.99327731,6.06722689 7.98655462,6.08403361 L7.98991597,7.8789916 C7.99663866,7.8789916 8.04705882,7.91596639 8.11428571,7.91596639 L10.3798319,7.91596639 C10.6487395,7.91596639 10.8705882,8.13781513 10.8705882,8.40672269 L10.8705882,10.6823529 C10.8705882,10.7529412 10.9142857,10.8033613 10.9310924,10.810084 L12.7226891,10.8067227 C12.7193277,10.8033613 12.7630252,10.7529412 12.7630252,10.6823529 L12.7563025,8.40672269 C12.7563025,8.27563025 12.8067227,8.1512605 12.9008403,8.05714286 C12.994958,7.96638655 13.1193277,7.91260504 13.2470588,7.91260504 L15.5092437,7.91260504 L15.5092437,7.92268908 Z M15.5092437,5.03865546 C16.1008403,5.03865546 16.6184874,5.51932773 16.6184874,6.0605042 L16.6184874,7.88235294 C16.6184874,8.42689076 16.1008403,8.90420168 15.5092437,8.90420168 L13.7344538,8.90420168 L13.7378151,10.6857143 C13.7378151,11.287395 13.2705882,11.794958 12.7193277,11.794958 L10.907563,11.794958 C10.3563025,11.794958 9.88907563,11.287395 9.88907563,10.6857143 L9.88907563,8.90084034 L8.11428571,8.90084034 C7.51596639,8.90084034 7.00840336,8.43361345 7.00840336,7.8789916 L7.00840336,6.06386555 C7.00840336,5.5092437 7.51596639,5.04201681 8.11428571,5.04201681 L9.88907563,5.04201681 L9.88907563,3.2605042 C9.88907563,2.65546218 10.3529412,2.14453782 10.907563,2.14453782 L12.712605,2.14453782 C13.2537815,2.14453782 13.7310924,2.66554622 13.7310924,3.2605042 L13.7310924,5.03865546 L15.5092437,5.03865546 Z" id="Hospital_1Light"></path>
        </g>
    </g>
</svg>

<svg width="24" height="24" viewBox="0 0 24 24" xmlns="http://www.w3.org/2000/svg"><path d="M22.645 22.333V4.904c0-.117-.01-.222-.027-.306h-2.712a1.953 1.953 0 00-.024.306V22.64h2.74c.01-.081.023-.185.023-.306zm-3.74.306V1.445c0-.221-.23-.457-.394-.457H5.113c-.162 0-.39.239-.39.457v21.197h3.633v-8.266a.49.49 0 01.491-.49h5.936c.27 0 .49.222.49.49v8.266h3.631v-.003zm-9.57 0h4.957v-7.775H9.334v7.775zm-8.357-.306c0 .12.01.225.024.306h2.74v-1.224c0-.007-.004-.01-.004-.013V4.908c0-.118-.01-.222-.024-.306H1.002a1.915 1.915 0 00-.027.306v17.425h.003zm21.94-18.716c.655 0 .706.988.706 1.29v17.43c0 .39-.068 1.29-.706 1.29H.706c-.639 0-.706-.9-.706-1.29V4.906c0-.302.05-1.29.706-1.29h3.039V1.442C3.745.686 4.397 0 5.116 0h13.398c.72 0 1.372.686 1.372 1.442v2.175h3.032zm-7.409 4.306c.067 0 .128-.047.138-.07l-.003-1.769a.186.186 0 00-.131-.06h-2.27a.491.491 0 01-.49-.491V3.26c0-.068-.047-.128-.067-.138l-1.778.003c.003.007-.037.064-.037.131v2.276a.49.49 0 01-.491.49H8.114c-.07 0-.12.044-.127.061l.003 1.795c.007 0 .057.037.124.037h2.266c.269 0 .49.222.49.49v2.276c0 .07.044.121.061.128l1.792-.003c-.004-.004.04-.054.04-.125l-.007-2.275a.49.49 0 01.491-.494h2.262v.01zm0-2.884c.592 0 1.11.48 1.11 1.022v1.821c0 .545-.518 1.022-1.11 1.022h-1.775l.004 1.782c0 .601-.467 1.109-1.019 1.109h-1.811c-.552 0-1.019-.508-1.019-1.11V8.902H8.114c-.598 0-1.106-.467-1.106-1.022V6.064c0-.555.508-1.022 1.106-1.022H9.89V3.261c0-.606.464-1.116 1.019-1.116h1.805c.54 0 1.018.52 1.018 1.116v1.778h1.778z" fill="#5CB615" fill-rule="nonzero"/></svg>
